X: 16669
T: Hanter Dro
R: slide
M: 12/8
K: Gminor
|:d2 cB A2 d2 d2 c2|d2 cB A2 d2 d2 c2|d2 cB A2 d2 d2 c2:|
|:G2 AB c2 A2 d4|d2 cB A2-AB G2 F2|
G2 AB c2 A2 d4|d2 cB A2-AB G4:|

